static/images/flags/flag_en.svg

<svg width="20" height="20" viewBox="0 0 20 20" fill="none" xmlns="http://www.w3.org/2000/svg">
<g clip-path="url(#clip0_2001_9786)">
<path d="M10 0H20V2.5L18.75 3.75L20 5V7.5L18.75 8.75L20 10V12.5L18.75 13.75L20 15V17.5L10 18.75L0 17.5V15L1.25 13.75L0 12.5V10L10 0Z" fill="#EEEEEE"/>
<path d="M8.75 2.5H20V5H8.75V2.5ZM8.75 7.5H20V10H10L8.75 7.5ZM0 12.5H20V15H0V12.5ZM0 17.5H20V20H0V17.5Z" fill="#D80027"/>
<path d="M0 0H10V10H0V0Z" fill="#0052B4"/>
<path d="M7.30469 9.49219L9.53125 7.89062H6.79688L9.02344 9.49219L8.16406 6.875L7.30469 9.49219ZM4.14062 9.49219L6.36719 7.89062H3.63281L5.85938 9.49219L5 6.875L4.14062 9.49219ZM0.976562 9.49219L3.20312 7.89062H0.46875L2.69531 9.49219L1.83594 6.875L0.976562 9.49219ZM7.30469 6.32812L9.53125 4.72656H6.79688L9.02344 6.32812L8.16406 3.71094L7.30469 6.32812ZM4.14062 6.32812L6.36719 4.72656H3.63281L5.85938 6.32812L5 3.71094L4.14062 6.32812ZM0.976562 6.32812L3.20312 4.72656H0.46875L2.69531 6.32812L1.83594 3.71094L0.976562 6.32812ZM7.30469 3.125L9.53125 1.52344H6.79688L9.02344 3.125L8.16406 0.507812L7.30469 3.125ZM4.14062 3.125L6.36719 1.52344H3.63281L5.85938 3.125L5 0.507812L4.14062 3.125ZM0.976562 3.125L3.20312 1.52344H0.46875L2.69531 3.125L1.83594 0.507812L0.976562 3.125Z" fill="#EEEEEE"/>
</g>
<defs>
<clipPath id="clip0_2001_9786">
<rect width="20" height="20" rx="10" fill="white"/>
</clipPath>
</defs>
</svg>

<svg xmlns="http://www.w3.org/2000/svg" width="20" height="20" fill="none" xmlns:v="https://vecta.io/nano"><g clip-path="url(#A)"><path d="M10 0h10v2.5l-1.25 1.25L20 5v2.5l-1.25 1.25L20 10v2.5l-1.25 1.25L20 15v2.5l-10 1.25L0 17.5V15l1.25-1.25L0 12.5V10L10 0z" fill="#eee"/><path d="M8.75 2.5H20V5H8.75V2.5zm0 5H20V10H10L8.75 7.5zM0 12.5h20V15H0v-2.5zm0 5h20V20H0v-2.5z" fill="#d80027"/><path d="M0 0H10V10H0V0Z" fill="#0052b4"/><path d="M7.305 9.492l2.227-1.602H6.797l2.227 1.602-.859-2.617-.859 2.617zm-3.164 0l2.227-1.602H3.633l2.227 1.602L5 6.875l-.859 2.617zm-3.164 0l2.227-1.602H.469l2.227 1.602-.859-2.617-.859 2.617zm6.328-3.164l2.227-1.602H6.797l2.227 1.602-.859-2.617-.859 2.617zm-3.164 0l2.227-1.602H3.633l2.227 1.602L5 3.711l-.859 2.617zm-3.164 0l2.227-1.602H.469l2.227 1.602-.859-2.617-.859 2.617zm6.328-3.203l2.227-1.602H6.797l2.227 1.602L8.164.508l-.859 2.617zm-3.164 0l2.227-1.602H3.633l2.227 1.602L5 .508l-.859 2.617zm-3.164 0l2.227-1.602H.469l2.227 1.602L1.836.508.977 3.125z" fill="#eee"/></g><defs><clipPath id="A"><rect width="20" height="20" rx="10" fill="#fff"/></clipPath></defs></svg>
